X: 4
T: No_13_The_Whale_Is_Going_to_Help_Me_Cure_This_Sick_Man.krn
N: Derived from No_13_The_Whale_Is_Going_to_Help_Me_Cure_This_Sick_Man.krn
%%abc-version 2.0
%%abcx-abcm2ps-target-version 5.9.1 (29 Sep 2008)
%%abc-creator hum2abc beta
%%abcx-conversion-date 2019/03/15 08:26:49
%%humdrum-veritas 3375206666
%%humdrum-veritas-data 2511015294
%%linebreak <none>
%%barnumbers 0
L: 1/8
M: 2/4
%%staves {1 2}
V: 1 clef=bass
V: 2 clef=bass
K: F
[V:1] [K:clef=bass][M:2/4]C4 [I:setbarnb 2]| 
[V:2] [K:clef=bass][M:2/4]G,,G,, G,,G,, | 
[V:1] (3DCB, B,G, | 
[V:2] G,,G,,z2 | 
[V:1] G,2z G, ||  
[V:2] z4 ||  
[V:1] [M:3/4]C4-CB, | 
[V:2] [M:3/4]z6 | 
[V:1] B,G,G,2z C | 
[V:2] z6 | 
[V:1] CB, (3CB,G, G, z ||  
[V:2] z6 ||  
[V:1] [M:2/4]C3/B,/ B,3/G,/ | 
[V:2] [M:2/4]z4 | 
[V:1] G,4 ||  
[V:2] z4 ||  
[V:1] [M:3/4](3B,G,F, F,F, D, z/ G,/ ||  
[V:2] [M:3/4]z6 ||  
[V:1] [M:2/4]G,4 ||  
[V:2] [M:2/4]z4 ||  
[V:1] [M:3/4](3B,G,F, F,F, D, z/ G,/ | 
[V:2] [M:3/4]z6 | 
[V:1] G,F, F,D, D, z ||  
[V:2] z6 ||  
[V:1] [M:2/4]G,F, (3F,D,C, | 
[V:2] [M:2/4]z4 | 
[V:1] C,4 | 
[V:2] z4 | 
[V:1] (3D,C,B,, B,,B,, | 
[V:2] z4 | 
[V:1] G,,2z D, | 
[V:2] z4 | 
[V:1] D,C,-C,2 | 
[V:2] z4 | 
[V:1] C,4 :|]  
[V:2] z4 :|]  



